!!!SOCIAL_FUNCTION:	songs of social dance
!!!PDT:	1936
!!!OTL: No_64_Opening_Song_of_Snake_Dance.krn
!!!REG: Oklahoma and Montana
!!!LANG: Tone
!!!LING_GROUP: Algonquin
**kern
*staff1
=1-
=
*clefF4
*k[f#]
*M2/4
8e\L
8B\J
4B\
=2
8e\L
[8d\J
4d\]
=3
8B\L
[8A\J
8A\L]
8E\J
=4
*M3/4
8B\L
[8A\J
4A\]
4E\
=5
2E\
4E\
=6
2E\
4BB/
=7
2BB/
4r
=8
*M2/4
8E\L
8E\J
4D\
=9
8E\L
8E\J
4r
=10
8F#\L
8E\J
4E\
=11
2E\
=12
4E\
4r
==
*-
